X: 66
M:4/4
L:1/8
K:D
EF|GEBE GABG|FDAD FGAF|GEBE GABc|dBAF E2 EF|
ef|gefd edBc|dBAG FD D2|gfed edBA|Beed e2 ef|
gefd edBc|dBAG FD D2|EFGA B2 Bc|dBAF E2||

